X:9016
T:La Patada
C:Tradicional
S:Música Tradicional Asturiana, (C) Tello & Tito. Asturies, 2001.
S:http://pagina.de/MusTradAst <telloytito@asturies.org>
A:Asturies
B:Musicología Asturiana - La Canción Tradicional, Modesto González Cobas
Z:La Canción Tradicional, M.G.C.
M:2/4
L:1/8
Q:1/4=100
W:hombre mío no te mueras amor mío no te mueras mira que t'enterrarán 
W:mira que t'enterrarán mis ojos nuca llorán si te mueres llorarán
K:C
GG
|: GG GG|G c3|z2 Bc|dc cB|c3/2d/4d/4 A2-|A2 AB|
Bc cB|c/2d/4c/4 A2-A/2B/4A/4|[1 G2 GG :|[2 G4|


